X:70
T:Stack of Wheat, The
Z:makes a good set played with the Little Stack of Barley
R:hornpipe
I:speed 250
E:7
M:C|
K:G
BA|GEDE GABG|(3ABA GA Bdef|gedB GABG|dBAG E2BA|\
GEDE GABG|(3ABA GA Bdef|gedB GABG|AGEF G2:|*
Bd|edBd edgd|edBd e2 (3def|gedB GABG|dBAG E2BA|\
GEDE GABG|(3ABA GA Bdef|gedB GABG|AGEF G2:|**
<end>
<start>
